icons/lgtm.svg

<!--
  - The MIT License (MIT)
  -
  - Copyright (c) 2015-2024 Elior "Mallowigi" Boukhobza
  -
  - Permission is hereby granted, free of charge, to any person obtaining a copy
  - of this software and associated documentation files (the "Software"), to deal
  - in the Software without restriction, including without limitation the rights
  - to use, copy, modify, merge, publish, distribute, sublicense, and/or sell
  - copies of the Software, and to permit persons to whom the Software is
  - furnished to do so, subject to the following conditions:
  -
  - The above copyright notice and this permission notice shall be included in all
  - copies or substantial portions of the Software.
  -
  - THE SOFTWARE IS PROVIDED "AS IS", WITHOUT WARRANTY OF ANY KIND, EXPRESS OR
  - IMPLIED, INCLUDING BUT NOT LIMITED TO THE WARRANTIES OF MERCHANTABILITY,
  - FITNESS FOR A PARTICULAR PURPOSE AND NONINFRINGEMENT. IN NO EVENT SHALL THE
  - AUTHORS OR COPYRIGHT HOLDERS BE LIABLE FOR ANY CLAIM, DAMAGES OR OTHER
  - LIABILITY, WHETHER IN AN ACTION OF CONTRACT, TORT OR OTHERWISE, ARISING FROM,
  - OUT OF OR IN CONNECTION WITH THE SOFTWARE OR THE USE OR OTHER DEALINGS IN THE
  - SOFTWARE.
  -
  -->

<svg  version="1.1" xmlns="http://www.w3.org/2000/svg" viewBox="0 0 512 512" width="16px" height="16px">
  <path fill="#5E35B1" data-iconColor="LGTM"
        d="M187.5632324,389.8392944c63.4393768,23.1445007,73.4856567,26.4932556,136.4882507,0.0213623c52.5296326-17.8991394,98.5750732-36.038269,120.3178101-113.8753662c65.04599-13.416626,87.0919495-78.1593018,48.8311768-138.5149689c-25.3656616-37.0374298-73.0854797-23.363327-88.2330933,11.1144714c-55.7344666-55.128479-227.079361-64.8956985-298.2346802,0.1492615c-10.8686142-20.9709244-22.183342-29.8010864-50.2177696-32.9381027c-65.0412216,6.9620056-89.0406647,141.47052,10.9011345,158.9306335C84.1064529,345.797699,134.8735962,374.4025269,187.5632324,389.8392944z M149.611969,342.8000793c-31.1461029-17.5783997-54.8470154-54.1857605-55.8069916-94.8250732c-12.522438,1.0666504-38.1433182-2.8159485-51.9670715-16.9383698c-25.9622021-26.3462067-5.0772438-86.0145569,15.1890678-86.0145569c26.0785103-0.7820129,28.3381462,39.2457733,48.7671242,51.3911285c46.9782104-89.5618591,262.1360474-82.0271454,301.1998901-0.1066132c13.4397583-5.1839142,23.3169556-40.3193207,34.3887024-47.124527c37.3356018-23.3544083,54.3584595,61.201767,29.3755188,81.8545837c-13.7384033,14.0157623-39.0393066,17.9623718-51.668396,16.9597168c-0.9599915,40.6606445-24.6395569,77.3533325-55.9776917,94.9317017C244.4911346,391.9610291,271.6532898,389.7285156,149.611969,342.8000793z M246.2715302,330.3416748c-3.8501129-1.1815186-4.1989441-5.9953613,1.1306458-6.1012268c3.7723236-1.2160034,1.9056854-7.039917-1.8666382-5.8239136c-5.098587,0.4266663-8.0318451,3.1145935-8.0318451,10.15448c0,4.4799194,2.943924,7.7865295,8.0638428,7.7865295C249.118927,336.1367493,249.8514709,331.4973145,246.2715302,330.3416748z M275.4123535,328.5710144c0-7.039856-2.9653015-9.7278442-8.0425415-10.15448c-4.863739-0.5917053-5.0455627,5.2765198-1.8559875,5.8239136c3.8826294,0.5332947,3.8826294,1.2159729,3.8826294,3.1999512c-0.1152039,3.7778625-5.4638977,1.6383667-5.0221863,6.5829773C264.8627625,338.7064514,275.699707,336.2879028,275.4123535,328.5710144z M139.9436493,304.1367493c-43.3217773-24.9754944-43.3217926-87.7532196-0.0000153-112.728714s97.7680359,6.4133759,97.7680359,56.3643494S183.2654419,329.1122437,139.9436493,304.1367493z M209.4403076,238.3475037c-6.6058197-18.0206146-28.301651-23.8328705-42.9976349-13.6183014c10.8174591,0.1699829,14.3082428,11.3028107,10.329071,17.8399048c-3.6008148,5.9156342-14.2243652,10.294632-21.7727966-1.3412933c-3.802475,15.2108765,5.6674194,32.038147,22.7624664,35.0009766C199.3213806,279.9653931,216.9631042,258.8696594,209.4403076,238.3475037z M306.4795837,304.1273499c-43.3145447-24.9713135-43.3145752-87.7385864,0-112.7099152s97.7517395,6.4122925,97.7517395,56.35495S349.7941589,329.0986938,306.4795837,304.1273499z M356.3025208,238.2901764c-6.605835-18.2832336-27.8588867-24.3704224-42.5548706-14.0070038c10.7416382,0.8910217,13.883606,11.6536102,9.9044495,18.285965c-3.6008301,6.0018616-15.0694275,10.4183655-21.6802368-1.6126404c-3.8024902,15.4325104,5.9994812,32.570755,23.0945129,35.576767C346.6263428,280.3243408,363.8252869,259.1113892,356.3025208,238.2901764z"/>
</svg>

<svg xmlns="http://www.w3.org/2000/svg" viewBox="0 0 512 512"><path fill="#5e35b1" d="M187.563 389.84c63.44 23.144 73.486 26.493 136.488.02 52.53-17.898 98.576-36.038 120.318-113.875 65.046-13.416 87.092-78.159 48.831-138.515-25.365-37.037-73.085-23.363-88.233 11.115-55.734-55.129-227.079-64.896-298.234.15-10.869-20.972-22.184-29.802-50.218-32.939-65.041 6.962-89.04 141.47 10.901 158.93 16.69 71.072 67.458 99.677 120.147 115.113m-37.951-47.04c-31.146-17.578-54.847-54.186-55.807-94.825-12.522 1.067-38.143-2.816-51.967-16.938-25.962-26.347-5.077-86.015 15.189-86.015 26.078-.782 28.338 39.246 48.767 51.391 46.978-89.562 262.136-82.027 301.2-.106 13.44-5.184 23.317-40.32 34.389-47.125 37.335-23.354 54.358 61.202 29.375 81.855-13.738 14.015-39.04 17.962-51.668 16.96-.96 40.66-24.64 77.353-55.978 94.931-118.62 49.033-91.459 46.8-213.5-.128m96.66-12.458c-3.85-1.182-4.2-5.996 1.13-6.102 3.772-1.216 1.906-7.04-1.866-5.823-5.099.426-8.032 3.114-8.032 10.154 0 4.48 2.944 7.787 8.064 7.787 3.55-.221 4.283-4.86.704-6.016m29.14-1.771c0-7.04-2.965-9.728-8.042-10.154-4.864-.592-5.046 5.276-1.856 5.823 3.882.534 3.882 1.216 3.882 3.2-.115 3.778-5.463 1.639-5.022 6.583.489 4.683 11.326 2.265 11.038-5.452m-135.468-24.434c-43.322-24.976-43.322-87.753 0-112.729s97.768 6.413 97.768 56.364-54.447 81.34-97.768 56.365m69.496-65.79c-6.606-18.02-28.301-23.832-42.997-13.618 10.817.17 14.308 11.303 10.329 17.84-3.601 5.916-14.225 10.295-21.773-1.341-3.803 15.21 5.667 32.038 22.762 35 21.56 3.737 39.202-17.358 31.68-37.88m97.04 65.78c-43.315-24.971-43.315-87.738 0-112.71s97.751 6.413 97.751 56.355-54.437 81.327-97.751 56.355m49.823-65.837c-6.606-18.283-27.86-24.37-42.555-14.007 10.741.891 13.883 11.654 9.904 18.286-3.6 6.002-15.07 10.419-21.68-1.613-3.803 15.433 6 32.571 23.094 35.577 21.56 3.791 38.76-17.422 31.237-38.243" data-iconColor="LGTM"/></svg>
